X:1035
T:Chester Waits
A:North-West
M:4/4
O:England
R:Reel
Z:Richard Robinson 
%%TUNEURL: http://www.leeds.ac.uk/music/Info/RRTuneBk/gettune/0000051d.html
%%ID:0000051d
K:F
c2c2 {c}B2B2| A2GF E2C2| DEFA GFEF| CFEG F4:|\
c>d c>B A>G F2| f>g f>e d>c B2| g>a g>f e>d c>e| f>g "tr"g2 {fg}a2c2| \
f>g "tr"g2 afaf| f>g"tr"g2 afac| fagb agfa| cfeg f4:|
